X:89
T:Branton Reel,The. RHu.089
S:R.Hughes MS,1823,Whitchurch,Shrops.
N:Bar 8 is a single cr. in MS. I have changed to a minim.
A:Whitchurch, Shropshire
Z:Neil Brookes 2006
M:2/4
L:1/8
Q:1/2=80
R:Reel
K:G
g2d>c|B>dd2|e2A>G|F>Aa2|g2d>c|B>dd2|edef|”cr in MS”g4::!
a2a>g|f>aa2|b2b>g|g>bb2|c’2c’>a|b2b>g|abag|fd”DC”ef:|

